X: 1
T: Lurgan, The
M: 4/4
L: 1/8
R: hornpipe
K: Gmaj
|:GA|BGBd gdBd|cAaf gedc|BGBd gdBd|AGFE DFAc|
BGBd gdBd|cAaf gedc|BdBG AcAF|G2GG G2:|
|:GB|dcBA GBdf|e2c2 dBcd|ecBc Aceg|f2dd d2dc|
BGDG BGdB|AFDF AFcA|BGBd cAFA|G2 G2 G2:|
